X:101
T:B101-  The danger is over
Q:1/4=120
L:1/4
M:6/4
K:Dm
A|d3/2e/2d^cAF|B3/2c/2BAFD|G3/2B/2AFDF|\
AFAcAc|fccA3/2G/2F|(F3F2)A|c3/2d/2c(cG)G|\
(G/4A/4B)c/2B(BE)F/2E/2|DFDFAF|AcAd3/2f/2e|(^c3c2)A|\
e3/2f/2ed3/2c/2=B|c3/2=B/2A^G2B|(f=B)cB^F^G|^GEec3/2=B/2A|\
(A3A2)||e/2d/2|^c3/2d/2eAd=c|=B3/2A/2B(cG)d|(ec)ef3/2e/2d|\
gecc3/2d/2=B|(c3c3/2)d/2c|B3/2A/2BA3/2B/2A|G3/2A/2F(FG/2F/2E)|\
(DF/2E/2D) (ef/2e/2d)|(^c3c3/2)=B/2A|d3/2d/2efA^c|dGABEG|\
ADAF3/2E/2D|(D3D2)|]
